images/logo.svg

<?xml version="1.0" encoding="UTF-8"?>
<svg width="309px" height="56px" viewBox="0 0 309 56" version="1.1" xmlns="http://www.w3.org/2000/svg" xmlns:xlink="http://www.w3.org/1999/xlink">
    <!-- Generator: Sketch 46.2 (44496) - http://www.bohemiancoding.com/sketch -->
    <title>logo</title>
    <desc>Created with Sketch.</desc>
    <defs></defs>
    <g id="Page-1" stroke="none" stroke-width="1" fill="none" fill-rule="evenodd">
        <g id="Desktop" transform="translate(-35.000000, -25.000000)" fill="#FFFFFF">
            <g id="header">
                <g id="logo" transform="translate(35.000000, 25.000000)">
                    <path d="M61.64,51.551 L60.328,53.601 C60.328,53.601 61.927,55.61 64.797,55.61 C67.544,55.61 69.635,53.929 70.701,51.305 L79.598,29.739 C79.885,29.001 80.295,28.796 81.033,28.796 L81.443,28.796 L81.443,26.377 L80.172,26.377 C78.286,26.377 77.671,26.787 76.974,28.632 L71.89,41.506 C71.48,42.531 71.193,43.72 71.193,43.72 L71.111,43.72 C71.111,43.72 70.783,42.531 70.373,41.506 L65.084,28.632 C64.346,26.787 63.772,26.377 61.927,26.377 L60.656,26.377 L60.656,28.796 L61.066,28.796 C61.804,28.796 62.173,29.001 62.501,29.739 L69.758,46.918 L68.528,49.747 C67.749,51.633 66.519,53.109 64.715,53.109 C62.952,53.109 61.64,51.592 61.64,51.551 Z M83.329,36.586 C83.329,30.477 88.208,25.885 94.194,25.885 C100.221,25.885 105.1,30.477 105.1,36.586 C105.1,42.818 100.221,47.492 94.235,47.492 C88.208,47.492 83.329,42.818 83.329,36.586 Z M86.199,36.586 C86.199,41.383 89.807,44.991 94.235,44.991 C98.622,44.991 102.23,41.383 102.23,36.586 C102.23,31.912 98.622,28.427 94.235,28.427 C89.807,28.427 86.199,31.912 86.199,36.586 Z M124.666161,43.2997198 L125.19,44.2325 L125.19,43.761 C125.19,42.941 125.272,42.285 125.272,42.285 L125.19,42.285 C125.061556,42.5996871 124.886838,42.9435471 124.666161,43.2997198 Z M125.19,44.2325 L124.666161,43.2997198 C123.478009,45.2173959 120.95756,47.492 117.154,47.492 C112.275,47.492 110.225,44.868 110.225,39.497 L110.225,29.698 C110.225,29.124 109.897,28.796 109.323,28.796 L107.601,28.796 L107.601,26.377 L110.512,26.377 C112.275,26.377 113.013,27.115 113.013,28.796 L113.013,38.759 C113.013,41.998 113.546,44.868 117.523,44.868 C122.197,44.868 125.108,40.727 125.108,36.258 L125.108,26.377 L127.896,26.377 L127.896,43.679 C127.896,44.294 128.224,44.581 128.798,44.581 L130.52,44.581 L130.52,47 L127.691,47 C125.969,47 125.19,46.262 125.19,44.704 L125.19,44.2325 Z M132.447,32.076 C132.447,42.08 139.253,47.492 146.633,47.492 C151.635,47.492 154.546,44.95 154.546,44.95 L154.628,44.95 C154.628,44.95 154.587,45.565 154.587,46.18 L154.587,47 L160.737,47 L160.737,33.429 C160.737,31.338 159.835,30.436 157.744,30.436 L151.553,30.436 L151.553,36.586 L153.316,36.586 C153.89,36.586 154.218,36.914 154.218,37.488 L154.218,38.595 C154.218,38.595 152.004,40.727 148.15,40.727 C143.968,40.727 140.073,37.816 140.073,32.035 C140.073,26.91 143.886,23.876 147.781,23.876 C151.635,23.876 154.546,26.213 154.546,26.213 L158.646,21.006 C158.646,21.006 155.12,17.193 147.617,17.193 C138.884,17.193 132.447,23.671 132.447,32.076 Z M163.279,32.158 C163.279,23.753 169.757,17.193 178.613,17.193 C187.469,17.193 193.947,23.753 193.947,32.158 C193.947,40.768 187.469,47.492 178.613,47.492 C169.757,47.492 163.279,40.768 163.279,32.158 Z M170.905,32.158 C170.905,37.037 174.349,40.727 178.613,40.727 C182.877,40.727 186.321,37.037 186.321,32.158 C186.321,27.484 182.877,23.958 178.613,23.958 C174.349,23.958 170.905,27.484 170.905,32.158 Z M194.808,47 L194.808,40.85 L195.587,40.85 C196.243,40.85 196.448,40.645 196.694,39.948 L204.689,17.685 L212.315,17.685 L220.31,39.948 C220.556,40.645 220.761,40.85 221.417,40.85 L222.196,40.85 L222.196,47 L217.481,47 C215.431,47 214.611,46.385 214.037,44.622 L212.766,40.85 L204.238,40.85 L202.967,44.622 C202.393,46.385 201.573,47 199.523,47 L194.808,47 Z M205.796,34.905 L211.208,34.905 L209.732,30.026 C209.158,28.181 208.543,25.188 208.543,25.188 L208.461,25.188 C208.461,25.188 207.846,28.181 207.272,30.026 L205.796,34.905 Z M229.371,47 L229.371,23.835 L226.993,23.835 C226.419,23.835 226.091,24.163 226.091,24.737 L226.091,26.336 L219.736,26.336 L219.736,20.514 C219.736,18.423 220.474,17.685 222.565,17.685 L243.516,17.685 C245.607,17.685 246.345,18.423 246.345,20.514 L246.345,26.336 L239.99,26.336 L239.99,24.737 C239.99,24.163 239.662,23.835 239.088,23.835 L236.71,23.835 L236.71,47 L229.371,47 Z M257.067651,29.8844167 L256.474,29.2382143 L256.474,29.616 C256.474,30.436 256.392,31.092 256.392,31.092 L256.474,31.092 C256.625778,30.6791626 256.826103,30.2744162 257.067651,29.8844167 Z M256.474,29.2382143 L257.067651,29.8844167 C258.457341,27.6406463 261.211549,25.885 263.936,25.885 C267.749,25.885 269.717,27.648 270.332,31.051 L270.414,31.051 C271.521,28.263 274.514,25.885 277.999,25.885 C283.001,25.885 284.846,28.796 284.846,33.88 L284.846,43.679 C284.846,44.294 285.174,44.581 285.748,44.581 L287.47,44.581 L287.47,47 L284.559,47 C282.796,47 282.058,46.262 282.058,44.499 L282.058,34.577 C282.058,31.215 281.361,28.427 277.589,28.427 C274.473,28.427 271.89,31.215 271.07,34.249 C270.783,35.151 270.701,36.135 270.701,37.242 L270.701,47 L267.913,47 L267.913,34.577 C267.913,31.461 267.462,28.427 263.567,28.427 C260.205,28.427 257.704,31.338 256.843,34.495 C256.597,35.356 256.515,36.299 256.515,37.242 L256.515,47 L253.727,47 L253.727,29.698 C253.727,29.124 253.399,28.796 252.825,28.796 L251.103,28.796 L251.103,26.377 L253.973,26.377 C255.695,26.377 256.474,27.115 256.474,28.673 L256.474,29.2382143 Z M289.971,36.709 C289.971,29.944 294.604,25.885 300.139,25.885 C305.838,25.885 308.79,30.272 308.79,35.397 C308.79,35.889 308.708,36.791 308.708,36.791 L292.882,36.791 C292.964,41.998 296.613,44.991 300.877,44.991 C304.649,44.991 307.068,42.449 307.068,42.449 L308.421,44.54 C308.421,44.54 305.428,47.492 300.754,47.492 C294.645,47.492 289.971,43.064 289.971,36.709 Z M293.005,34.577 L305.92,34.577 C305.756,30.313 303.132,28.222 300.098,28.222 C296.695,28.222 293.702,30.436 293.005,34.577 Z" id="youGOATme-Copy"></path>
                    <path d="M50.8383508,30.9417086 C50.9865564,31.3563916 51.0183609,31.796771 50.909512,32.2123278 C50.3379769,34.3617069 49.7511453,36.4516672 49.096406,38.3084002 L48.1890323,38.3428947 L47.2903974,40.6120277 L45.3892376,40.6120277 L44.7735338,38.4234395 L41.8482441,38.4234395 L40.7824565,41.2079319 L37.4084314,42.4460509 C33.0727873,39.6063656 29.2938523,31.2068136 23.4382484,31.2068136 L17.5932987,31.2068136 C8.44767152,31.2068136 4.76879142,29.4384955 4.76879142,23.1973728 C4.76879142,16.9562501 0.883618971,16.0547546 0.642944572,12.2754081 L0.0584496017,2.67101374 C-0.113460684,-0.0334727601 0.0240675446,0.00120014378 1.43373188,0.00120014378 L2.25890125,0.00120014378 C3.42789119,0.00120014378 3.35912708,-0.0334727601 3.97800411,2.67101374 L5.93778136,9.95232354 C8.48205358,11.1658752 14.1894751,11.0271836 17.2150961,16.1934462 C22.7849893,16.0200817 28.3892646,16.3668108 31.7587062,17.0602688 L33.9935399,2.53232212 C34.3717425,0.0358730476 34.7843272,0.00120014378 35.6438787,0.00120014378 L37.0191609,0.00120014378 C37.9474765,0.00120014378 38.0850047,-0.137491472 37.8443303,2.56699503 L37.2254533,9.77895902 C35.6438787,28.0862522 39.4259049,33.217842 46.1991702,29.61186 C47.5327331,28.8998838 48.7302735,28.9965076 49.5925177,29.4866349 C48.305398,29.6975392 47.5699768,29.8839846 47.3862541,30.0459713 C47.1976025,30.2123036 47.0291211,30.7403778 46.8808098,31.6301938 C47.2602879,31.3841648 47.5947391,31.2073719 47.8841637,31.0998152 C48.1718067,30.9929205 49.1565357,30.9402183 50.8383508,30.9417086 Z M47.5436815,41.9155955 C46.3830894,44.0357603 44.9882287,45.362366 43.1864491,45.3250396 C41.1216849,46.7338221 38.011857,48.4593559 35.993984,49.3463822 C34.171735,50.143859 33.3465656,48.5142325 35.2375788,47.3700267 C37.6099407,45.4976899 37.7696117,44.6427111 38.9386017,43.1864491 C38.7009536,43.1142233 38.4657077,43.0219863 38.2324761,42.9117946 L40.9494836,41.9155955 L44.7735338,41.9155955 L47.2903974,41.9155955 L47.5436815,41.9155955 Z M24.0571254,2.56699503 C23.8508331,-0.137491472 24.1602716,0.00120014378 25.019823,0.00120014378 L26.3607233,0.00120014378 C27.1858926,0.00120014378 27.3234208,0.00120014378 27.7360055,2.53232212 L29.7301648,14.841203 L24.985441,14.3904552 L24.0571254,2.56699503 Z M13.4330698,9.98699645 L8.72272798,8.84279062 L10.1323923,2.67101374 C10.7512693,0.00120014378 10.4074488,0.00120014378 11.7139669,0.00120014378 L12.7798107,0.00120014378 C13.8800365,0.00120014378 13.9144186,-0.0334727601 13.7768904,2.67101374 L13.4330698,9.98699645 Z M49.276676,29.8272434 L51.4517616,28.485897 C52.0757477,28.1380169 52.5665421,28.156072 52.9241447,28.5400624 C53.4605487,29.1160479 51.0082682,30.479242 50.0849053,30.7790197 C49.1615424,31.0787974 48.2299915,30.316332 48.0289503,30.1293293 C47.8949229,30.0046608 48.3108314,29.9039655 49.276676,29.8272434 Z M49.6395402,30.2219764 C50.2506896,30.0171258 50.6080038,29.8668726 50.7114829,29.7712168 C50.8149619,29.675561 51.2780244,29.3740746 52.1006703,28.8667577 C51.2365656,29.26618 50.7392735,29.5294752 50.6087939,29.6566432 C50.4783143,29.7838112 50.1552297,29.9722556 49.6395402,30.2219764 Z M49.0613677,38.274267 L49.1206953,38.0385348 L50.2050261,38.039649 L49.0012045,42.1073981 L47.4182059,42.0964888 L47.5422926,41.8971517 L48.8979614,41.9067611 L49.9646092,38.2716147 L49.0613677,38.274267 Z" id="Shape" fill-rule="nonzero" transform="translate(26.500000, 24.779110) scale(-1, 1) rotate(-180.000000) translate(-26.500000, -24.779110) "></path>
                </g>
            </g>
        </g>
    </g>
</svg>

<svg width="309" height="56" xmlns="http://www.w3.org/2000/svg"><g fill="#FFF" fill-rule="evenodd"><path d="M61.64 51.551l-1.312 2.05s1.599 2.009 4.469 2.009c2.747 0 4.838-1.681 5.904-4.305l8.897-21.566c.287-.738.697-.943 1.435-.943h.41v-2.419h-1.271c-1.886 0-2.501.41-3.198 2.255L71.89 41.506c-.41 1.025-.697 2.214-.697 2.214h-.082s-.328-1.189-.738-2.214l-5.289-12.874c-.738-1.845-1.312-2.255-3.157-2.255h-1.271v2.419h.41c.738 0 1.107.205 1.435.943l7.257 17.179-1.23 2.829c-.779 1.886-2.009 3.362-3.813 3.362-1.763 0-3.075-1.517-3.075-1.558zm21.689-14.965c0-6.109 4.879-10.701 10.865-10.701 6.027 0 10.906 4.592 10.906 10.701 0 6.232-4.879 10.906-10.865 10.906-6.027 0-10.906-4.674-10.906-10.906zm2.87 0c0 4.797 3.608 8.405 8.036 8.405 4.387 0 7.995-3.608 7.995-8.405 0-4.674-3.608-8.159-7.995-8.159-4.428 0-8.036 3.485-8.036 8.159zm38.467 6.714l.524.933v-.472c0-.82.082-1.476.082-1.476h-.082a6.901 6.901 0 0 1-.524 1.015zm.524.933l-.524-.933c-1.188 1.917-3.708 4.192-7.512 4.192-4.879 0-6.929-2.624-6.929-7.995v-9.799c0-.574-.328-.902-.902-.902h-1.722v-2.419h2.911c1.763 0 2.501.738 2.501 2.419v9.963c0 3.239.533 6.109 4.51 6.109 4.674 0 7.585-4.141 7.585-8.61v-9.881h2.788v17.302c0 .615.328.902.902.902h1.722V47h-2.829c-1.722 0-2.501-.738-2.501-2.296v-.471zm7.257-12.157c0 10.004 6.806 15.416 14.186 15.416 5.002 0 7.913-2.542 7.913-2.542h.082s-.041.615-.041 1.23V47h6.15V33.429c0-2.091-.902-2.993-2.993-2.993h-6.191v6.15h1.763c.574 0 .902.328.902.902v1.107s-2.214 2.132-6.068 2.132c-4.182 0-8.077-2.911-8.077-8.692 0-5.125 3.813-8.159 7.708-8.159 3.854 0 6.765 2.337 6.765 2.337l4.1-5.207s-3.526-3.813-11.029-3.813c-8.733 0-15.17 6.478-15.17 14.883zm30.832.082c0-8.405 6.478-14.965 15.334-14.965s15.334 6.56 15.334 14.965c0 8.61-6.478 15.334-15.334 15.334s-15.334-6.724-15.334-15.334zm7.626 0c0 4.879 3.444 8.569 7.708 8.569s7.708-3.69 7.708-8.569c0-4.674-3.444-8.2-7.708-8.2s-7.708 3.526-7.708 8.2zM194.808 47v-6.15h.779c.656 0 .861-.205 1.107-.902l7.995-22.263h7.626l7.995 22.263c.246.697.451.902 1.107.902h.779V47h-4.715c-2.05 0-2.87-.615-3.444-2.378l-1.271-3.772h-8.528l-1.271 3.772c-.574 1.763-1.394 2.378-3.444 2.378h-4.715zm10.988-12.095h5.412l-1.476-4.879c-.574-1.845-1.189-4.838-1.189-4.838h-.082s-.615 2.993-1.189 4.838l-1.476 4.879zM229.371 47V23.835h-2.378c-.574 0-.902.328-.902.902v1.599h-6.355v-5.822c0-2.091.738-2.829 2.829-2.829h20.951c2.091 0 2.829.738 2.829 2.829v5.822h-6.355v-1.599c0-.574-.328-.902-.902-.902h-2.378V47h-7.339zm27.697-17.116l-.594-.646v.378c0 .82-.082 1.476-.082 1.476h.082c.152-.413.352-.818.594-1.208zm-.594-.646l.594.646c1.39-2.243 4.144-3.999 6.868-3.999 3.813 0 5.781 1.763 6.396 5.166h.082c1.107-2.788 4.1-5.166 7.585-5.166 5.002 0 6.847 2.911 6.847 7.995v9.799c0 .615.328.902.902.902h1.722V47h-2.911c-1.763 0-2.501-.738-2.501-2.501v-9.922c0-3.362-.697-6.15-4.469-6.15-3.116 0-5.699 2.788-6.519 5.822-.287.902-.369 1.886-.369 2.993V47h-2.788V34.577c0-3.116-.451-6.15-4.346-6.15-3.362 0-5.863 2.911-6.724 6.068-.246.861-.328 1.804-.328 2.747V47h-2.788V29.698c0-.574-.328-.902-.902-.902h-1.722v-2.419h2.87c1.722 0 2.501.738 2.501 2.296v.565zm33.497 7.471c0-6.765 4.633-10.824 10.168-10.824 5.699 0 8.651 4.387 8.651 9.512 0 .492-.082 1.394-.082 1.394h-15.826c.082 5.207 3.731 8.2 7.995 8.2 3.772 0 6.191-2.542 6.191-2.542l1.353 2.091s-2.993 2.952-7.667 2.952c-6.109 0-10.783-4.428-10.783-10.783zm3.034-2.132h12.915c-.164-4.264-2.788-6.355-5.822-6.355-3.403 0-6.396 2.214-7.093 6.355z"/><path d="M50.838 18.617c.149-.415.18-.856.072-1.271-.572-2.15-1.159-4.24-1.814-6.096l-.907-.035-.899-2.269h-1.9l-.616 2.189h-2.926L40.782 8.35l-3.374-1.238c-4.335 2.84-8.114 11.24-13.97 11.24h-5.845c-9.145 0-12.824 1.768-12.824 8.009 0 6.241-3.885 7.142-4.126 10.922l-.585 9.604c-.171 2.705-.034 2.67 1.376 2.67h.825c1.169 0 1.1.035 1.719-2.67l1.96-7.281c2.544-1.214 8.251-1.075 11.277-6.241 5.57.173 11.174-.174 14.544-.867l2.235 14.528c.378 2.496.79 2.531 1.65 2.531h1.375c.928 0 1.066.139.825-2.566l-.619-7.212c-1.581-18.307 2.2-23.439 8.974-19.833 1.334.712 2.531.616 3.394.126-1.288-.211-2.023-.398-2.207-.56-.188-.166-.357-.694-.505-1.584.38.246.714.423 1.003.53.288.107 1.273.16 2.954.159zM47.544 7.643c-1.16-2.12-2.556-3.447-4.358-3.41C41.122 2.824 38.012 1.1 35.994.212c-1.822-.798-2.647.832-.756 1.976 2.372 1.873 2.532 2.728 3.7 4.184a5.18 5.18 0 0 0-.706.274l2.717.997H47.544zM24.057 46.99c-.206 2.705.103 2.566.963 2.566h1.34c.826 0 .963 0 1.376-2.531l1.994-12.309-4.745.45-.928 11.824zm-10.624-7.42l-4.71 1.144 1.41 6.172c.618 2.67.274 2.67 1.581 2.67h1.066c1.1 0 1.134.035.997-2.67l-.344-7.316zm35.844-19.84l2.175 1.341c.624.348 1.115.33 1.472-.054.537-.576-1.916-1.939-2.84-2.239-.922-.3-1.854.463-2.055.65-.134.125.282.225 1.248.302zm.363-.395c.61.205.968.355 1.071.451.104.096.567.397 1.39.904-.864-.399-1.362-.662-1.492-.79-.13-.127-.454-.315-.97-.565zm-.579-8.052l.06.236 1.084-.001-1.204-4.068-1.583.01.124.2 1.356-.01 1.067 3.636-.904-.003z" fill-rule="nonzero"/></g></svg>
